X: 19374
T: Jack's The Lad
R: hornpipe
M: 4/4
K: Dmajor
dc|:d2 D2 D2 AG|FAdc dfed|e2 EF ^GBed|ce a2 a2 bc'|
d'c'ba bagf|gfed edcB|AcBd cfeg|1 f2 d2 d2 dc:|2 f2 d2 dBAG||
|:FAdA FAdA|B2 G2 G2 BA|^GBeB GBeB|c2 A2 A2 gf|
g2 b2 bagf|gfed edcB|AcBd cfeg|1 f2 d2 dBAG:|2 f2 d2 d2 dc||

